src/pos-icons/lighthouse-on.svg

<svg height="24" viewBox="0 0 24 24" width="24" xmlns="http://www.w3.org/2000/svg"><path d="m1 10v-8l9 3v2zm7 0v-2h5v-4h-5v-1l4-2 4 2v1h-1v4h1v2h-1.26l-6.3 3.64.56-3.64zm-1 13 .04-.24 9.11-5.26.52 3.38-3.67 2.12zm1.05-6.83 7.26-4.17.52 3.37-8.4 4.85z"/></svg>

<?xml version="1.0" encoding="UTF-8"?><!DOCTYPE svg PUBLIC "-//W3C//DTD SVG 1.1//EN" "http://www.w3.org/Graphics/SVG/1.1/DTD/svg11.dtd"><svg xmlns="http://www.w3.org/2000/svg" xmlns:xlink="http://www.w3.org/1999/xlink" version="1.1" id="mdi-lighthouse-on" width="24" height="24" viewBox="0 0 24 24"><path d="M1,10V2L10,5V7L1,10M8,10V8H13V4H8V3L12,1L16,3V4H15V8H16V10H14.74L8.44,13.64L9,10H8M7,23L7.04,22.76L16.15,17.5L16.67,20.88L13,23H7M8.05,16.17L15.31,12L15.83,15.37L7.43,20.22L8.05,16.17Z" /></svg>
